X:56
T:Petronella
S:Bernie Waugh
R:Reel
M:2/4
L:1/16
K:D
|:dA|\
"D"F2AF "A"E2AE|"D"D2D2D2 FA|d2cd e2d2|"A"cdBc A2dA|
"D"F2AF "A"E2AE|"D"D2D2D2 FA|d2cd "A"e2c2|"D"d4d2:|
|:dA|\
"D"F2fd A2af|"G"g2gf "Em"edcB|"A"A2ec A2ge|"D"f2fd AdAF|
"D"D2fd A2af|"G"g2gf "Em"edcB|"A"A2ec Agec|"D"d2d2d2:|

